X: 18
T:Cattle in the Cane
M:4/4
L:1/8
Q:100
C:American
R:Reel
K:C
((3e^f^g|:"Am"a2) A2 A2 A-B|cAB-c A2 AG|E-GAB "C"c2 cB|A-Bcd "E"e2 ((3e^
f^g|"Am"a2) A2 A2 AB|!
cAB-c A2 A-B|cBAc "E"BAGB|[1"Am"AGE-G A2 ((3e^f^g):|[2"Am"AGE-G A2 ^cd||
